assets/symbols/mulberry/nest_of_tables.svg

<svg height="850.394" viewBox="0 0 850.394 850.394" width="850.394" xmlns="http://www.w3.org/2000/svg"><g fill="#f6cc4b"><path d="m717.88 402.01-5.88-.01-118.37 6.7-3.19.18-41.86 2.3-257.64 14.17h-1.48v-62.47l-.19-3.66 428.6-21.77.13 2.55z"/><path d="m717.88 402.01.12-62.01-.13-2.55 41.19-2.09.02.32v424.74l-41.88 2.95z"/><path d="m717.87 337.45-428.6 21.77-41.78 2.12-1.38.07c-.01 0-24.11-17.41-24.11-17.41h-2.18v-149.83l-.22-4.36 515.91-26.2v108.57l-42.18 2.31.06 1.13 40.54 23.72 33.24 19.44v16.17l-8.11.41z"/><path d="m219.82 344h2.18s24.1 17.41 24.11 17.41l1.38-.07.08 1.54v53.66h-2.94l-22.63-22.54h-2.18zm0-149.83v522.83l-49.91 3.5v-526.33l-.09-1.83 49.78-2.53zm-148-9.63 50.17 39.02-2 408.49-49.92 3.5v-451.01z"/><path d="m121.99 223.56-50.17-39.02h-1.75v-61.18l98.08 69.06 1.67-.08.09 1.83v63.93h-3.51z"/><path d="m735.51 163.61-515.91 26.2-49.78 2.53-1.67.08-98.08-69.06-7.01-4.94v-25.84l12.92-.67.22 4.18 98.08 65.68 602.8-27.04 11.99 6.9v19.26z"/><path d="m735.51 272.18v-108.57l53.56-2.72-1.07 523.11h-28.92v-348.32l-.02-.32 8.11-.41v-16.17l-33.24-19.44 1.58-2.7zm-144.79 141.81v233.51l-41.89 2.94v-234.7l-.25-4.56 41.86-2.3zm-301.26 11.36v362.27l-41.89 2.94v-427.68l-.08-1.54 41.78-2.12.19 3.66zm361.24-363.42 126.38 72.8-602.8 27.04-98.08-65.68-.22-4.18z"/></g><g fill="none"><g stroke="#231f20" stroke-width="21"><path d="m70.07 123.36-7.01-4.94v-25.84l12.92-.67 574.72-29.98 126.38 72.8 11.99 6.9v19.26l-53.56 2.72-515.91 26.2-49.78 2.53-1.67.08z"/><path d="m76.2 96.09 98.08 65.68 602.8-27.04 2.35-.11m-559.61 59.55v522.83l-49.91 3.5v-526.33m565.6 102.47v-134.87m53.56-.88-1.07 523.11h-28m-638-462-.01 1.56-2 408.49-49.92 3.5v-512.31"/><path d="m71.82 184.54 50.17 39.02 44.41 34.54m60.43 42.04 466.5-25.65 42.18-2.31 1.01-.06m-43.13 3.5 40.54 23.72 33.24 19.44v16.17l-8.11.41-41.189 2.09-428.6 21.77-41.78 2.12-1.38.07c-.011 0-24.111-17.41-24.111-17.41m67.46 18.88v424.74l-41.89 2.94v-427.68m343.15 51.11v233.51l-41.89 2.94v-234.7m210.25-80.06v424.74l-41.88 2.95.68-361.36.12-62.01m-496 54 22.63 22.54m349-7.84 118.37-6.7m-421.06 23.35 257.64-14.17 41.86-2.3 3.19-.18"/></g><path d="m0 0h850.394v850.394h-850.394z"/></g></svg>

<svg xmlns="http://www.w3.org/2000/svg" width="850.394" height="850.394" viewBox="0 0 850.394 850.394" overflow="visible"><g fill="#f6cc4b"><path d="M717.88 402.01L712 402l-118.37 6.7-3.19.18-41.86 2.3-257.64 14.17h-1.48v-62.47l-.19-3.66 428.6-21.77.13 2.55z"/><path d="M717.88 402.01L718 340l-.13-2.55 41.19-2.09.02.32v424.74l-41.88 2.95z"/><path d="M717.87 337.45l-428.6 21.77-41.78 2.12-1.38.07C246.1 361.41 222 344 222 344h-2.18V194.17l-.22-4.36 515.91-26.2v108.57l-42.18 2.31.06 1.13 40.54 23.72 33.24 19.44v16.17l-8.11.41-41.19 2.09z"/><path d="M219.82 344H222s24.1 17.41 24.11 17.41l1.38-.07.08 1.54v53.66h-2.94L222 394h-2.18v-50zM219.82 194.17V717l-49.91 3.5V194.17l-.09-1.83 49.78-2.53zM71.82 184.54l50.17 39.02-2 408.49-49.92 3.5V184.54z"/><path d="M121.99 223.56l-50.17-39.02h-1.75v-61.18l98.08 69.06 1.67-.08.09 1.83v63.93h-3.51z"/><path d="M735.51 163.61l-515.91 26.2-49.78 2.53-1.67.08-98.08-69.06-7.01-4.94V92.58l12.92-.67.22 4.18 98.08 65.68 602.8-27.04 11.99 6.9v19.26z"/><path d="M735.51 272.18V163.61l53.56-2.72L788 684h-28.92V335.68l-.02-.32 8.11-.41v-16.17l-33.24-19.44 1.58-2.7zM590.72 413.99V647.5l-41.89 2.94v-234.7l-.25-4.56 41.86-2.3zM289.46 425.35v362.27l-41.89 2.94V362.88l-.08-1.54 41.78-2.12.19 3.66zM650.7 61.93l126.38 72.8-602.8 27.04L76.2 96.09l-.22-4.18z"/></g><g fill="none" stroke="#231f20" stroke-width="21"><path d="M70.07 123.36l-7.01-4.94V92.58l12.92-.67L650.7 61.93l126.38 72.8 11.99 6.9v19.26l-53.56 2.72-515.91 26.2-49.78 2.53-1.67.08z"/><path d="M76.2 96.09l98.08 65.68 602.8-27.04 2.35-.11M219.82 194.17V717l-49.91 3.5V194.17M735.51 296.64V161.77M789.07 160.89L788 684h-28M122 222l-.01 1.56-2 408.49-49.92 3.5V123.24"/><path d="M71.82 184.54l50.17 39.02 44.41 34.54M226.83 300.14l466.5-25.65 42.18-2.31 1.01-.06M693.39 275.62l40.54 23.72 33.24 19.44v16.17l-8.11.41-41.189 2.09-428.6 21.77-41.78 2.12-1.38.07C246.1 361.41 222 344 222 344M289.46 362.88v424.74l-41.89 2.94V362.88M590.72 413.99V647.5l-41.89 2.94v-234.7M759.08 335.68v424.74l-41.88 2.95.68-361.36L718 340M222 394l22.63 22.54M593.63 408.7L712 402M290.94 425.35l257.64-14.17 41.86-2.3 3.19-.18"/></g><path fill="none" d="M0 0h850.394v850.394H0z"/></svg>
